icons/agriculture_fill.svg

<svg width="48" height="48" viewBox="0 0 48 48" fill="none" xmlns="http://www.w3.org/2000/svg">
<path fill-rule="evenodd" clip-rule="evenodd" d="M19.1759 21.6474C18.705 21.9361 18.5573 22.5518 18.8459 23.0226C19.7645 24.521 20.5469 26.0084 21.0667 27.3592C21.2651 27.8746 21.8438 28.1316 22.3592 27.9333C22.8746 27.7349 23.1316 27.1562 22.9333 26.6408C22.3545 25.137 21.5066 23.536 20.5511 21.9774C20.2624 21.5065 19.6467 21.3588 19.1759 21.6474Z" fill="black"/>
<path fill-rule="evenodd" clip-rule="evenodd" d="M29.5901 20.6926C30.036 21.0185 30.1332 21.6442 29.8074 22.0901C28.6503 23.6732 27.6311 25.79 26.914 27.4056C26.69 27.9104 26.0992 28.1381 25.5944 27.914C25.0896 27.69 24.8619 27.0992 25.086 26.5944C25.8095 24.964 26.9003 22.6781 28.1926 20.9099C28.5185 20.464 29.1442 20.3668 29.5901 20.6926Z" fill="black"/>
<path fill-rule="evenodd" clip-rule="evenodd" d="M27.2397 12.0368C29.5815 9.35911 42.1051 6 42.1051 6C42.1051 6 39.9763 19.395 38.1029 21.5372C36.7076 23.1326 32.2628 22.1355 30.0846 21.5225C31.7133 19.0259 33.5996 16.5871 35.2593 14.6508C35.6187 14.2315 35.5701 13.6002 35.1508 13.2407C34.7315 12.8813 34.1002 12.9299 33.7407 13.3492C32.0679 15.3009 30.1286 17.7983 28.4317 20.3959C27.4766 18.6199 25.3879 14.1543 27.2397 12.0368ZM11 30H6V42H11V39.9567C12.0203 39.9151 13.5258 39.8614 14.0475 39.8825C15.8337 39.9548 17.1676 40.3807 18.5163 40.8114C19.7745 41.2132 21.0456 41.6191 22.7089 41.7457C23.127 41.7775 23.5338 41.8186 23.9282 41.8584C25.3524 42.0022 26.6148 42.1296 27.6583 41.7457C28.9909 41.2553 36.6053 37.529 37.5571 36.5484C38.5089 35.5677 38.033 32.9201 35.0824 33.4104C33.6265 33.6523 31.9389 34.3479 30.4083 34.9787C28.8369 35.6264 27.431 36.2058 26.6113 36.1561C24.9933 36.058 20.7101 35.2736 20.7101 35.2736L25.6279 35.3333C25.6279 35.3333 26.3226 35.3704 27.2776 34.6852C28.2326 34 29.086 32.0375 27.6583 32.0375C26.2306 32.0375 24.7077 31.5472 24.7077 31.5472L18.6161 30.1743C18.6161 30.1743 16.5222 29.7821 15.6655 30.1743C14.9604 30.4972 12.0185 31.551 11 31.9136V30ZM8.87767 9.66945C8.87767 9.66945 19.2129 12.4416 21.1455 14.6514C22.638 16.358 21.0289 19.9128 20.2186 21.4434C19.1303 19.7217 17.9186 18.052 16.7853 16.6145C16.4434 16.1808 15.8146 16.1064 15.3809 16.4483C14.9472 16.7903 14.8728 17.419 15.2147 17.8528C16.3378 19.2773 17.5121 20.9017 18.5506 22.5478C16.6831 23.0536 13.2815 23.7506 12.1806 22.4917C10.6345 20.7239 8.87767 9.66945 8.87767 9.66945Z" fill="black"/>
</svg>

<svg
  xmlns="http://www.w3.org/2000/svg"
  width="24"
  height="24"
  viewBox="0 0 24 24"
  fill="none"
  stroke="currentColor"
  stroke-width="2"
  stroke-linecap="round"
  stroke-linejoin="round"
>
  <path
    fill-rule="evenodd"
    d="M19.176 21.647a1 1 0 0 0-.33 1.376c.919 1.498 1.7 2.985 2.22 4.336a1 1 0 0 0 1.867-.718c-.578-1.504-1.426-3.105-2.382-4.664a1 1 0 0 0-1.375-.33"
    clip-rule="evenodd"
  />
  <path
    fill-rule="evenodd"
    d="M29.59 20.693a1 1 0 0 1 .217 1.397c-1.157 1.583-2.176 3.7-2.893 5.316a1 1 0 1 1-1.828-.812c.724-1.63 1.814-3.916 3.107-5.684a1 1 0 0 1 1.397-.217"
    clip-rule="evenodd"
  />
  <path
    fill-rule="evenodd"
    d="M27.24 12.037C29.582 9.359 42.105 6 42.105 6s-2.129 13.395-4.002 15.537c-1.395 1.596-5.84.599-8.018-.014 1.628-2.497 3.515-4.936 5.174-6.872a1 1 0 0 0-1.518-1.302c-1.673 1.952-3.612 4.45-5.31 7.047-.954-1.776-3.043-6.242-1.191-8.36M11 30H6v12h5v-2.043c1.02-.042 2.526-.096 3.047-.075 1.787.073 3.12.499 4.47.93 1.258.401 2.529.807 4.192.934.418.032.825.073 1.22.112 1.423.144 2.686.272 3.73-.112 1.332-.49 8.946-4.217 9.898-5.198.952-.98.476-3.628-2.475-3.138-1.456.242-3.143.938-4.674 1.569-1.571.647-2.977 1.227-3.797 1.177-1.618-.098-5.9-.882-5.9-.882l4.917.06s.695.036 1.65-.649 1.808-2.648.38-2.648-2.95-.49-2.95-.49l-6.092-1.373s-2.094-.392-2.95 0c-.706.323-3.648 1.377-4.666 1.74zM8.878 9.67s10.335 2.772 12.267 4.981c1.493 1.707-.116 5.262-.926 6.792a58 58 0 0 0-3.434-4.829 1 1 0 1 0-1.57 1.239 56 56 0 0 1 3.336 4.695c-1.868.506-5.27 1.203-6.37-.056-1.546-1.768-3.303-12.823-3.303-12.823"
    clip-rule="evenodd"
  />
</svg>
